!!!!SEGMENT: Arc2007-Benedixit_Deus_noe.krn
!!!id: Arc2007
!!!AGN: Motet
!!!voices: 4
!!!COM: Jacques Arcadelt
!!!OTL: Benedixit Deus noe
**kern	**kern	**kern	**kern
*part4	*part3	*part2	*part1
*staff4	*staff3	*staff2	*staff1
*I"Bassus	*I"Tenor	*I"Altus	*I"Superius
*I'B	*I'T	*I'A	*I'S
*clefF4	*clefGv2	*clefGv2	*clefG2
*k[]	*k[]	*k[]	*k[]
*C:	*C:	*C:	*C:
*M2/1	*M2/1	*M2/1	*M2/1
*met(C|)	*met(C|)	*met(C|)	*met(C|)
!!section: Prima pars: Benedixit Deus noe
!!!OMD: Prima pars: Benedixit Deus noe
=1	=1	=1	=1
0r	0r	1r	0dd
.	.	[1g	.
=2	=2	=2	=2
0r	0r	1g]	1b
.	.	1e	1cc
=3	=3	=3	=3
0r	0r	1f	0dd
.	.	2.g	.
.	.	4f	.
=4	=4	=4	=4
0r	0r	4e	1g
.	.	4d	.
.	.	1c	.
.	.	.	[1cc
.	.	4B	.
.	.	4A	.
=5	=5	=5	=5
0r	0r	2G	2cc]
.	.	1g	2b
.	.	.	2a
.	.	2f	[2dd
=6	=6	=6	=6
0r	0r	1e	2dd]
.	.	.	2cc
.	.	2.d	1b
.	.	4e	.
=7	=7	=7	=7
0r	0r	4f	2a
.	.	4g	.
.	.	1a	2.cc
.	.	.	4b
.	.	[2g	4a
.	.	.	4g
=8	=8	=8	=8
1r	0d	2g]	1a
.	.	2f#i	.
[1G	.	2.g	[1g
.	.	8fLny	.
.	.	8eJ	.
=9	=9	=9	=9
1G]	1B	2d	1g]
.	.	2.e	.
1E	1c	.	1r
.	.	4d	.
.	.	4c	.
.	.	4B	.
=10	=10	=10	=10
1F	0d	1A	0r
2.G	.	1B	.
4F	.	.	.
=11	=11	=11	=11
4E	1G	0r	0r
4D	.	.	.
1C	.	.	.
.	[1c	.	.
2F	.	.	.
=12	=12	=12	=12
2E	2c]	0r	0r
2D	2B	.	.
1F	2A	.	.
.	[2d	.	.
=13	=13	=13	=13
2G	2d]	0r	0r
1A	2c	.	.
.	1B	.	.
[2G	.	.	.
=14	=14	=14	=14
2G]	2A	0r	1r
2F	2.c	.	.
4E	.	.	1g
4D	4B	.	.
[2G	4A	.	.
.	4G	.	.
=15	=15	=15	=15
2G]	1A	0r	1.cc
2F#i	.	.	.
1G	1G	.	.
.	.	.	2b
=16	=16	=16	=16
0r	0r	1d	2a
.	.	.	2.dd
.	.	[1g	.
.	.	.	4cc
.	.	.	4b
.	.	.	4a
=17	=17	=17	=17
0r	1r	2g]	2b
.	.	2f	2.cc
.	1G	2e	.
.	.	.	4b
.	.	2d	4a
.	.	.	4g
=18	=18	=18	=18
0r	1.c	2r	1a
.	.	4c	.
.	.	4d	.
.	.	4e	1g
.	.	4f	.
.	2B	[2g	.
=19	=19	=19	=19
1D	2A	2g]	2r
.	2.d	2f	2a
[1G	.	2g	[1b
.	4c	.	.
.	4B	2e	.
.	4A	.	.
=20	=20	=20	=20
2G]	2B	2d	2b]
2F	1c	2r	2a
2E	.	2r	2g
2D	2A	2d	2f
=21	=21	=21	=21
2r	2.c	2.e	2.g
4C	.	.	.
4D	8BL	8dL	4f
.	8AJ	8cJ	.
4E	2.G	1B	4g
4F	.	.	4a
[2G	.	.	[2b
.	4A	.	.
=22	=22	=22	=22
2G]	2B	2r	4b]
.	.	.	4g
2F	2A	1d	2.a
2G	2B	.	.
.	.	.	4g
2E	2c	2c	[2g
=23	=23	=23	=23
1D	1A	2d	2g]
.	.	2f	2f#i
1G	[1G	2e	[1g
.	.	[2d	.
=24	=24	=24	=24
2r	1G]	4d]	1g]
.	.	4c	.
1G	.	4B	.
.	.	4A	.
.	1r	2B	1r
2F	.	2A	.
=25	=25	=25	=25
2G	1r	4B	0r
.	.	4c	.
2B	.	4d	.
.	.	4B	.
2A	2r	2c	.
[2G	[2d	[2B	.
=26	=26	=26	=26
2G]	2d]	2B]	2r
2E	2c	2G	1g
2F	2d	2.A	.
2D	2f	.	2f
.	.	4B	.
=27	=27	=27	=27
2C	2e	2c	2g
1G	2.d	4B	2b
.	.	4c	.
.	.	4d	1a
.	4c	4e	.
2F	2A	[2f	.
=28	=28	=28	=28
2G	2B	2f]	1g
2B	1d	4e	.
.	.	4d	.
1A	.	2.e	1a
.	2c	.	.
.	.	4c	.
=29	=29	=29	=29
1D	1B	1d	2r
.	.	.	1dd
1r	1A	1e	.
.	.	.	2cc
=30	=30	=30	=30
0r	1d	1f	2dd
.	.	.	2ff
.	2c	2r	2ee
.	2B	2g	[2dd
=31	=31	=31	=31
1r	2A	2f	4dd]
.	.	.	4cc
.	4G	1g	4b
.	4A	.	4a
2r	4B	.	2b
.	4c	.	.
[2D	[2d	4f	2a
.	.	4e	.
=32	=32	=32	=32
2D]	2d]	2f	2b
2C	2G	1g	2cc
2D	1d	.	1a
2F	.	2f	.
=33	=33	=33	=33
2E	2r	2g	1g
2C	1c	2e	.
1G	.	2.d	2r
.	2B	.	[2g
.	.	4c	.
=34	=34	=34	=34
0r	2G	2B	2g]
.	2A	2c	2f
.	2B	2G	2d
.	2c	2r	2e
=35	=35	=35	=35
1r	1A	2r	2f
.	.	1c	2.e
2r	1G	.	.
.	.	.	4f
[2G	.	2B	4g
.	.	.	4a
=36	=36	=36	=36
2G]	1d	2G	2b
2F	.	2A	1a
2D	2r	2B	.
2E	[2c	2c	2g
=37	=37	=37	=37
2F	2c]	2A	2f
2G	2B	2G	2d
1E	1G	2r	1e
.	.	[2g	.
=38	=38	=38	=38
1D	1A	2g]	2r
.	.	2f	1a
1r	2B	2d	.
.	2c	2e	2g
=39	=39	=39	=39
0r	2A	2f	2a
.	2G	2g	2b
.	2r	1e	1cc
.	[2g	.	.
=40	=40	=40	=40
0r	2g]	1.d	2dd
.	2f	.	2.ff
.	2d	.	.
.	.	.	4ee
.	2e	2c	[2ee
=41	=41	=41	=41
1r	2f	2d	4ee]
.	.	.	4dd
.	2g	2G	1dd
2r	1e	1A	.
[2c	.	.	2cc#i
=42	=42	=42	=42
2c]	2r	1d	0dd
2B	1d	.	.
2G	.	2B	.
2G	2B	2G	.
=43	=43	=43	=43
2E	1G	1g	0r
1C	.	.	.
.	1c	2e	.
[2F	.	2c	.
=44	=44	=44	=44
2F]	2c	0r	0r
2F	2c	.	.
2F	2A	.	.
2D	2B	.	.
=45	=45	=45	=45
2E	2c	1r	2r
2F	2d	.	1dd
1G	1r	1g	.
.	.	.	2b
=46	=46	=46	=46
0r	0r	2e	1g
.	.	1c	.
.	.	.	1cc
.	.	[2f	.
=47	=47	=47	=47
0r	0r	2f]	2cc
.	.	2f	2cc
.	.	2f	2a
.	.	2d	2b
=48	=48	=48	=48
1r	2r	2e	2cc
.	1d	2f	2dd
[1G	.	1g	2r
.	2B	.	2dd
=49	=49	=49	=49
2G]	2G	1g	2b
1E	1c	.	2g
.	.	1e	2.cc
[2C	2c	.	.
.	.	.	4b
=50	=50	=50	=50
2C]	2c	1c	4a
.	.	.	4g
1F	2A	.	1a
.	2B	2d	.
2E	2c	2G	[2g
=51	=51	=51	=51
2F	1d	1A	2g]
2D	.	.	2f
2.E	2.G	1r	1e
4F	4A	.	.
=52	=52	=52	=52
1G	1B	2r	2.d
.	.	1d	.
.	.	.	4e
1D	1A	.	4f
.	.	.	4g
.	.	2f	4a
.	.	.	4f
=53	=53	=53	=53
0r	2r	2e	2g
.	1A	2c	2a
.	.	1e	2r
.	2c	.	2e
=54	=54	=54	=54
0r	2B	0d	1g
.	2G	.	.
.	1B-X	.	2f
.	.	.	2d
=55	=55	=55	=55
2r	1A	2r	1f
1A	.	2.c	.
.	1r	.	1e
.	.	4d	.
2c	.	2e	.
=56	=56	=56	=56
2B	0r	1d	1g
2G	.	.	.
1B-X	.	2r	2f
.	.	2d	2g
=57	=57	=57	=57
1A	2r	2f	1a
.	1A	2e	.
1r	.	2c	2r
.	2c	2e	2e
=58	=58	=58	=58
1r	2B	0d	1g
.	2G	.	.
2r	1B-X	.	2f
[2D	.	.	4d
.	.	.	4e
=59	=59	=59	=59
2D]	1A	1d	4f
.	.	.	4g
2F	.	.	4a
.	.	.	4f
2E	2B	[1e	2g
2C	[2c	.	[2a
=60	=60	=60	=60
1E	4c]	2e]	2a]
.	4B	.	.
.	4A	2c	1g
.	4G	.	.
1D	1A	2d	.
.	.	2d	2f#i
=61	=61	=61	=61
00G	00G	00B	00g
=62||	=62||	=62||	=62||
*M2/1	*M2/1	*M2/1	*M2/1
*met(C|)	*met(C|)	*met(C|)	*met(C|)
!!section: Secunda pars: Ecce ego statuam
!!!OMD: Secunda pars: Ecce ego statuam
0G	0B	0g	0dd
=63	=63	=63	=63
1G	1B	1g	1dd
1C	[1c	1g	[1ee
=64	=64	=64	=64
0G	2c]	1g	2ee]
.	4B	.	4dd
.	4A	.	4cc
.	1B	2.g	2dd
.	.	.	[2ee
.	.	4f	.
=65	=65	=65	=65
1.A	2.c	2.e	4ee]
.	.	.	4dd
.	.	.	4cc
.	4d	4d	4b
.	2e	2c	2a
2F	[2f	2A	2cc
=66	=66	=66	=66
2G	2f]	2B	2b
2A	1e	2c	1a
1B-X	.	1d	.
.	2d	.	2g
=67	=67	=67	=67
1A	2d	1e	[0a
.	2c#i	.	.
2r	2.d	1f	.
[2D	.	.	.
.	8cLny	.	.
.	8BJ	.	.
=68	=68	=68	=68
4D]	2.A	2.d	1a]
4E	.	.	.
4F	.	.	.
4G	4B	4e	.
2A	2c	4f	2r
.	.	4g	.
2F	2d	[2a	2a
=69	=69	=69	=69
2G	2.B	2a]	2b
2E	.	1g	2g
.	8AL	.	.
.	8GJ	.	.
1D	1A	.	2.dd
.	.	2f#i	.
.	.	.	4cc
=70	=70	=70	=70
1G	1G	2g	4b
.	.	.	4a
.	.	2d	2.b
1r	1r	2e	.
.	.	.	4g
.	.	2c	[2cc
=71	=71	=71	=71
0r	1r	2.g	2cc]
.	.	.	4b
.	.	4f	4a
.	2r	4e	1cc
.	.	4d	.
.	2A	[2a	.
=72	=72	=72	=72
1r	2B	4a]	1b
.	.	4g	.
.	2G	1g	.
2r	2.d	.	1a
2D	.	2f	.
.	4c	.	.
=73	=73	=73	=73
2E	4B	1e	1g
.	4A	.	.
2C	1c	.	.
2.G	.	1d	2r
.	4B	.	2d
4F	4A	.	.
=74	=74	=74	=74
4E	2B	2r	2e
4D	.	.	.
2.A	2c	2A	2c
.	1d	2B	2.g
4G	.	.	.
[2G	.	2G	.
.	.	.	4a
=75	=75	=75	=75
2G]	2G	1d	2b
2F#i	2A	.	1a
1G	1B	2r	.
.	.	2d	[2dd
=76	=76	=76	=76
1r	0A	2f	2dd]
.	.	2e	2cc
1D	.	1d	2.dd
.	.	.	4cc
=77	=77	=77	=77
2E	2r	2r	4b
.	.	.	4a
2C	4G	2.e	1cc
.	4A	.	.
2.G	4B	.	.
.	4c	4f	.
.	[2d	[2g	4b
4A	.	.	4a
=78	=78	=78	=78
2B	4d]	4g]	1g
.	4B	4f	.
2.c	2.e	4e	.
.	.	4d	.
.	.	4e	2r
4B	4d	4f	.
4A	4c	[2g	[2cc
4G	4B	.	.
=79	=79	=79	=79
2A	1c	2g]	2cc]
2A	.	2f#i	2cc
1G	[1d	1g	2b
.	.	.	2g
=80	=80	=80	=80
2r	1d]	2.G	2.b
1G	.	.	.
.	.	4A	4cc
.	2r	4B	1dd
.	.	4c	.
2G	[2d	4d	.
.	.	4e	.
=81	=81	=81	=81
2F	2d]	4f	1a
.	.	4g	.
2D	2d	1a	.
2.F	2c	.	2r
.	2A	4g	[2cc
4G	.	4f	.
=82	=82	=82	=82
1A	1c	2e	2cc]
.	.	2e	2cc
2D	1d	2f	2.b
[2G	.	2g	.
.	.	.	4g
=83	=83	=83	=83
2G]	2e	2r	2b
2F	1f	1d	1a
1B-X	.	.	.
.	4e	2d	2g
.	4d	.	.
=84	=84	=84	=84
1A	2e	2c	0a
.	2c	2A	.
1A	2e	1c	.
.	2f	.	.
=85	=85	=85	=85
2.G	1g	1d	0r
4F	.	.	.
2E	1r	2e	.
[2D	.	[2f	.
=86	=86	=86	=86
4D]	0r	2f]	2r
4E	.	.	.
4F	.	4e	1cc
4G	.	4d	.
2A	.	2c	.
2F	.	2A	2cc
=87	=87	=87	=87
2.G	2r	2.B	2b
.	1g	.	2g
4F	.	4A	.
1E	.	1G	2.b
.	2g	.	.
.	.	.	4cc
=88	=88	=88	=88
0D	2f	2r	1dd
.	2d	1d	.
.	2f	.	2.a
.	2f	2d	.
.	.	.	4f
=89	=89	=89	=89
1r	2e	2c	2g
.	2.c	2A	2.a
2r	.	1c	.
.	4B	.	4g
[2F	4A	.	4f
.	4G	.	4e
=90	=90	=90	=90
2F]	1A	1d	1f
2F	.	.	.
2E	2G	2.e	1g
2C	[2c	.	.
.	.	4f	.
=91	=91	=91	=91
2.E	2c]	2.g	2r
.	2c	.	2.g
4F	.	8fL	.
.	.	8eJ	.
2G	2B	2d	.
.	.	.	4a
[2G	2G	[2g	4b
.	.	.	4cc
=92	=92	=92	=92
2G]	1B	2g]	2dd
2G	.	2g	2b
2A	2A	2f	2cc
2B	2G	2d	2dd
=93	=93	=93	=93
1c	2r	1e	2.g
.	2c	.	.
.	.	.	4a
2B	2.d	2f	4b
.	.	.	4cc
[2G	.	2g	[2dd
.	4c	.	.
=94	=94	=94	=94
2G]	4d	1a	4dd]
.	4e	.	4cc
2F#i	2f	.	2a
1G	2e	1g	2b
.	2d	.	[2dd
=95	=95	=95	=95
2C	1e	1r	2dd]
1c	.	.	2cc
.	2r	1d	1dd
2B	[2d	.	.
=96	=96	=96	=96
2G	2d]	2B	0r
2G	2B	2G	.
2E	1G	1g	.
[2C	.	.	.
=97	=97	=97	=97
2C]	1c	2e	0r
1F	.	2c	.
.	2c	1r	.
2F	2c	.	.
=98	=98	=98	=98
2F	2A	0r	1r
2D	2B	.	.
2E	2c	.	2r
2F	2d	.	[2dd
=99	=99	=99	=99
1G	0r	1g	2dd]
.	.	.	2b
1r	.	2e	1g
.	.	[2c	.
=100	=100	=100	=100
0r	0r	2c]	1cc
.	.	1f	.
.	.	.	2cc
.	.	2f	2cc
=101	=101	=101	=101
0r	1r	2f	2a
.	.	2d	2b
.	2r	2e	2cc
.	[2d	2f	2dd
=102	=102	=102	=102
1.G	2d]	1g	2r
.	2B	.	2dd
.	2G	1g	2b
[2E	[2c	.	2g
=103	=103	=103	=103
2E]	2c]	1e	2.cc
1C	2c	.	.
.	.	.	4b
.	2c	1c	4a
.	.	.	4g
[2F	2A	.	[2a
=104	=104	=104	=104
2F]	2B	2d	2a]
2E	2c	2G	1g
2F	1d	1A	.
2D	.	.	2f
=105	=105	=105	=105
2.E	2.G	1r	2e
.	.	.	2e
4F	4A	.	.
1G	1B	2r	2.d
.	.	[2d	.
.	.	.	4e
=106	=106	=106	=106
1D	1A	2d]	4f
.	.	.	4g
.	.	2f	4a
.	.	.	4f
1r	2r	2e	2g
.	[2A	2c	2a
=107	=107	=107	=107
0r	2A]	1e	2r
.	2c	.	2e
.	2B	[1d	1g
.	2G	.	.
=108	=108	=108	=108
1r	1B-X	1d]	2f
.	.	.	2d
2r	1A	2r	1f
[2A	.	[2c	.
=109	=109	=109	=109
2A]	0r	4c]	1e
.	.	4d	.
2c	.	2e	.
2B	.	1d	1g
2G	.	.	.
=110	=110	=110	=110
1B-X	1r	2r	2f
.	.	2d	2g
1A	2r	2f	1a
.	[2A	2e	.
=111	=111	=111	=111
0r	2A]	2c	2r
.	2c	2e	2e
.	2B	[1d	1g
.	2G	.	.
=112	=112	=112	=112
2r	1B-i	1d]	2f
1D	.	.	4d
.	.	.	4e
.	1A	1d	4f
.	.	.	4g
2F	.	.	4a
.	.	.	4f
=113	=113	=113	=113
2E	2B	1.e	2g
2C	2.c	.	2.a
1E	.	.	.
.	4B	.	4g
.	4A	2c	[2g
.	4G	.	.
=114	=114	=114	=114
1D	1A	2d	2g]
.	.	2d	2f#i
[1Gl	[1Gl	[1Bl	[1gl
=115	=115	=115	=115
00G]	00G]	00B]	00g]
==	==	==	==
*-	*-	*-	*-
!!!system-decoration: [*]
!!!RDF**kern: i = editorial accidental
!!!RDF**kern: l = terminal long
!!!ENC: Benjamin Ory
!!!END: 2025/1/20
!!!EED: Benjamin Ory
!!!EEV: 2025/01/20
!!!YEC: Copyright 2025 Benjamin Ory, All Rights Reserved
!!!ONB: Translated from MusicXML on 2025/01/20